flaticon/household/bathtub.svg

<svg xmlns="http://www.w3.org/2000/svg" width="32" height="32" viewBox="0 0 24 24">
    <path d="M 23.601562 23.199219 L 19.601562 23.199219 L 19.601562 22.300781 C 20.59375 22.046875 21.414062 21.285156 21.695312 20.265625 L 23.117188 15.152344 C 23.625 15.011719 24 14.550781 24 14 C 24 13.339844 23.460938 12.800781 22.800781 12.800781 L 22.800781 0.964844 C 22.800781 0.574219 22.566406 0.222656 22.203125 0.0742188 C 21.84375 -0.0742188 21.429688 0.0078125 21.152344 0.285156 L 20.117188 1.320312 C 19.210938 0.628906 17.917969 0.691406 17.09375 1.515625 C 16.9375 1.671875 16.9375 1.921875 17.09375 2.078125 L 19.921875 4.910156 C 19.996094 4.984375 20.097656 5.027344 20.203125 5.027344 C 20.308594 5.027344 20.410156 4.984375 20.488281 4.910156 C 21.3125 4.082031 21.371094 2.789062 20.679688 1.886719 L 21.71875 0.847656 C 21.785156 0.78125 21.859375 0.796875 21.898438 0.8125 C 21.9375 0.828125 22 0.871094 22 0.964844 L 22 12.800781 L 9.601562 12.800781 L 9.601562 12 L 4.398438 12 L 4.398438 12.800781 L 1.199219 12.800781 C 0.539062 12.800781 0 13.339844 0 14 C 0 14.550781 0.375 15.011719 0.882812 15.152344 L 2.304688 20.265625 C 2.585938 21.285156 3.40625 22.046875 4.398438 22.300781 L 4.398438 23.199219 L 0.398438 23.199219 C 0.179688 23.199219 0 23.378906 0 23.597656 C 0 23.820312 0.179688 24 0.398438 24 L 23.601562 24 C 23.820312 24 24 23.820312 24 23.597656 C 24 23.378906 23.820312 23.199219 23.601562 23.199219 Z M 20.164062 4.023438 L 17.980469 1.835938 C 18.554688 1.507812 19.296875 1.589844 19.789062 2.078125 L 19.921875 2.210938 C 20.410156 2.703125 20.492188 3.445312 20.164062 4.023438 Z M 22.800781 13.597656 C 23.019531 13.597656 23.199219 13.777344 23.199219 14 C 23.199219 14.21875 23.019531 14.398438 22.800781 14.398438 L 9.601562 14.398438 L 9.601562 13.597656 Z M 8.800781 12.800781 L 8.800781 17.199219 L 5.199219 17.199219 L 5.199219 12.800781 Z M 5.199219 18 L 8.800781 18 L 8.800781 18.800781 L 5.199219 18.800781 Z M 1.199219 13.597656 L 4.398438 13.597656 L 4.398438 14.398438 L 1.199219 14.398438 C 0.980469 14.398438 0.800781 14.21875 0.800781 14 C 0.800781 13.777344 0.980469 13.597656 1.199219 13.597656 Z M 3.074219 20.050781 L 1.726562 15.199219 L 4.398438 15.199219 L 4.398438 19.597656 L 9.601562 19.597656 L 9.601562 15.199219 L 22.273438 15.199219 L 20.925781 20.050781 C 20.671875 20.964844 19.835938 21.597656 18.890625 21.597656 L 5.109375 21.597656 C 4.164062 21.597656 3.328125 20.964844 3.074219 20.050781 Z M 16.953125 22.398438 L 17.351562 23.199219 L 6.648438 23.199219 L 7.046875 22.398438 Z M 5.199219 23.199219 L 5.199219 22.398438 L 6.152344 22.398438 L 5.753906 23.199219 Z M 18.246094 23.199219 L 17.847656 22.398438 L 18.800781 22.398438 L 18.800781 23.199219 Z M 18.246094 23.199219"/>
    <path d="M18.800781 5.597656C19.019531 5.597656 19.199219 5.421875 19.199219 5.199219L19.199219 4.800781C19.199219 4.578125 19.019531 4.398438 18.800781 4.398438 18.578125 4.398438 18.398438 4.578125 18.398438 4.800781L18.398438 5.199219C18.398438 5.421875 18.578125 5.597656 18.800781 5.597656zM18.398438 8.398438C18.398438 8.621094 18.578125 8.800781 18.800781 8.800781 19.019531 8.800781 19.199219 8.621094 19.199219 8.398438L19.199219 8C19.199219 7.777344 19.019531 7.597656 18.800781 7.597656 18.578125 7.597656 18.398438 7.777344 18.398438 8zM18.398438 10C18.398438 10.222656 18.578125 10.398438 18.800781 10.398438 19.019531 10.398438 19.199219 10.222656 19.199219 10L19.199219 9.597656C19.199219 9.378906 19.019531 9.199219 18.800781 9.199219 18.578125 9.199219 18.398438 9.378906 18.398438 9.597656zM18.398438 11.597656C18.398438 11.820312 18.578125 12 18.800781 12 19.019531 12 19.199219 11.820312 19.199219 11.597656L19.199219 11.199219C19.199219 10.976562 19.019531 10.800781 18.800781 10.800781 18.578125 10.800781 18.398438 10.976562 18.398438 11.199219zM18.398438 6.800781C18.398438 7.019531 18.578125 7.199219 18.800781 7.199219 19.019531 7.199219 19.199219 7.019531 19.199219 6.800781L19.199219 6.398438C19.199219 6.179688 19.019531 6 18.800781 6 18.578125 6 18.398438 6.179688 18.398438 6.398438zM14.984375 5.011719C15.089844 5.011719 15.191406 4.972656 15.269531 4.894531L15.550781 4.613281C15.707031 4.457031 15.707031 4.203125 15.550781 4.046875 15.394531 3.890625 15.140625 3.890625 14.984375 4.046875L14.703125 4.332031C14.546875 4.488281 14.546875 4.738281 14.703125 4.894531 14.78125 4.972656 14.882812 5.011719 14.984375 5.011719zM13.855469 6.144531C13.957031 6.144531 14.058594 6.105469 14.136719 6.027344L14.421875 5.746094C14.578125 5.589844 14.578125 5.335938 14.421875 5.179688 14.261719 5.023438 14.011719 5.023438 13.855469 5.179688L13.570312 5.460938C13.414062 5.617188 13.414062 5.871094 13.570312 6.027344 13.648438 6.105469 13.753906 6.144531 13.855469 6.144531zM12.722656 7.277344C12.824219 7.277344 12.929688 7.238281 13.007812 7.160156L13.289062 6.875C13.445312 6.71875 13.445312 6.46875 13.289062 6.3125 13.132812 6.15625 12.878906 6.15625 12.722656 6.3125L12.441406 6.59375C12.285156 6.75 12.285156 7.003906 12.441406 7.160156 12.519531 7.238281 12.621094 7.277344 12.722656 7.277344zM16.117188 3.882812C16.21875 3.882812 16.320312 3.84375 16.398438 3.765625L16.683594 3.480469C16.839844 3.324219 16.839844 3.074219 16.683594 2.917969 16.527344 2.761719 16.273438 2.761719 16.117188 2.917969L15.835938 3.199219C15.679688 3.355469 15.679688 3.609375 15.835938 3.765625 15.914062 3.84375 16.015625 3.882812 16.117188 3.882812zM10.460938 9.539062C10.5625 9.539062 10.664062 9.5 10.742188 9.421875L11.027344 9.140625C11.183594 8.984375 11.183594 8.730469 11.027344 8.574219 10.871094 8.417969 10.617188 8.417969 10.460938 8.574219L10.175781 8.855469C10.019531 9.011719 10.019531 9.265625 10.175781 9.421875 10.253906 9.5 10.359375 9.539062 10.460938 9.539062zM8.199219 11.800781C8.300781 11.800781 8.402344 11.761719 8.480469 11.683594L8.761719 11.402344C8.917969 11.246094 8.917969 10.992188 8.761719 10.835938 8.605469 10.679688 8.355469 10.679688 8.199219 10.835938L7.914062 11.121094C7.757812 11.277344 7.757812 11.527344 7.914062 11.683594 7.992188 11.761719 8.09375 11.800781 8.199219 11.800781zM11.589844 8.40625C11.695312 8.40625 11.796875 8.367188 11.875 8.289062L12.15625 8.007812C12.3125 7.851562 12.3125 7.597656 12.15625 7.441406 12 7.285156 11.746094 7.285156 11.589844 7.441406L11.308594 7.726562C11.152344 7.878906 11.152344 8.132812 11.308594 8.289062 11.386719 8.367188 11.488281 8.40625 11.589844 8.40625zM9.328125 10.671875C9.429688 10.671875 9.535156 10.632812 9.613281 10.554688L9.894531 10.269531C10.050781 10.113281 10.050781 9.859375 9.894531 9.703125 9.738281 9.546875 9.484375 9.546875 9.328125 9.703125L9.046875 9.988281C8.890625 10.144531 8.890625 10.398438 9.046875 10.554688 9.125 10.632812 9.226562 10.671875 9.328125 10.671875zM15.65625 7.894531C15.71875 7.929688 15.785156 7.945312 15.851562 7.945312 15.992188 7.945312 16.128906 7.871094 16.203125 7.742188L16.394531 7.390625C16.503906 7.199219 16.433594 6.953125 16.238281 6.847656 16.046875 6.738281 15.804688 6.808594 15.695312 7.003906L15.503906 7.351562C15.394531 7.546875 15.464844 7.789062 15.65625 7.894531zM16.472656 5.605469L16.277344 5.953125C16.171875 6.144531 16.242188 6.390625 16.433594 6.496094 16.496094 6.53125 16.5625 6.546875 16.628906 6.546875 16.769531 6.546875 16.90625 6.472656 16.976562 6.34375L17.171875 5.992188C17.28125 5.800781 17.210938 5.554688 17.019531 5.449219 16.824219 5.339844 16.582031 5.410156 16.472656 5.605469zM17.210938 5.097656C17.273438 5.132812 17.339844 5.148438 17.40625 5.148438 17.546875 5.148438 17.683594 5.074219 17.753906 4.945312L17.949219 4.59375C18.058594 4.402344 17.988281 4.15625 17.792969 4.050781 17.601562 3.941406 17.359375 4.011719 17.25 4.207031L17.054688 4.554688C16.949219 4.746094 17.019531 4.992188 17.210938 5.097656zM14.648438 10.539062L14.839844 10.1875C14.949219 9.996094 14.878906 9.75 14.6875 9.644531 14.492188 9.535156 14.25 9.605469 14.140625 9.800781L13.949219 10.148438C13.839844 10.34375 13.910156 10.585938 14.105469 10.691406 14.164062 10.726562 14.230469 10.742188 14.296875 10.742188 14.4375 10.742188 14.574219 10.667969 14.648438 10.539062zM15.425781 9.140625L15.617188 8.789062C15.726562 8.597656 15.65625 8.351562 15.464844 8.246094 15.269531 8.136719 15.027344 8.207031 14.917969 8.402344L14.726562 8.75C14.617188 8.945312 14.6875 9.1875 14.878906 9.292969 14.941406 9.328125 15.007812 9.34375 15.074219 9.34375 15.214844 9.34375 15.351562 9.269531 15.425781 9.140625zM13.910156 11.042969C13.714844 10.933594 13.472656 11.003906 13.363281 11.199219L13.25 11.40625C13.144531 11.597656 13.210938 11.84375 13.40625 11.949219 13.46875 11.984375 13.535156 12 13.597656 12 13.742188 12 13.875 11.925781 13.949219 11.792969L14.0625 11.585938C14.171875 11.394531 14.101562 11.152344 13.910156 11.042969zM13.910156 11.042969"/>
</svg>

<svg xmlns="http://www.w3.org/2000/svg" width="32" height="32" viewBox="0 0 24 24">
    <path d="M23.602 23.2h-4v-.9a2.916 2.916 0 0 0 2.093-2.034l1.422-5.114c.508-.14.883-.601.883-1.152 0-.66-.54-1.2-1.2-1.2V.966a.964.964 0 1 0-1.648-.68L20.117 1.32a2.3 2.3 0 0 0-3.023.196.396.396 0 0 0 0 .562l2.828 2.832a.4.4 0 0 0 .566 0 2.3 2.3 0 0 0 .192-3.023l1.039-1.04a.159.159 0 0 1 .18-.034c.038.015.101.058.101.152V12.8H9.602V12H4.398v.8H1.2C.54 12.8 0 13.34 0 14c0 .55.375 1.012.883 1.152l1.422 5.114A2.916 2.916 0 0 0 4.398 22.3v.898h-4a.4.4 0 0 0 0 .801h23.204a.401.401 0 0 0 0-.8zM20.164 4.022L17.98 1.836a1.507 1.507 0 0 1 1.81.242l.132.133c.488.492.57 1.234.242 1.812zm2.637 9.575a.401.401 0 0 1 0 .8H9.6v-.8zm-14-.797v4.398H5.199v-4.398zM5.199 18h3.602v.8H5.199zm-4-4.402h3.2v.8h-3.2a.4.4 0 0 1 0-.8zm1.875 6.453l-1.347-4.852h2.671v4.399h5.204v-4.399h12.671l-1.347 4.852a2.115 2.115 0 0 1-2.035 1.547H5.109a2.115 2.115 0 0 1-2.035-1.547zm13.88 2.347l.398.801H6.648l.399-.8zM5.198 23.2v-.8h.953l-.398.8zm13.047 0l-.398-.8h.953v.8zm0 0"/>
    <path d="M18.8 5.598a.398.398 0 0 0 .4-.399v-.398a.401.401 0 1 0-.802 0v.398c0 .223.18.399.403.399zm0 0M18.398 8.398a.401.401 0 0 0 .8 0L19.2 8a.401.401 0 1 0-.8 0zm0 0M18.398 10c0 .223.18.398.403.398a.398.398 0 0 0 .398-.398v-.402a.4.4 0 0 0-.8 0zm0 0M18.398 11.598a.401.401 0 0 0 .8 0l.001-.399a.398.398 0 0 0-.398-.398.398.398 0 0 0-.403.398zm0 0M18.398 6.8a.401.401 0 0 0 .801 0v-.402a.4.4 0 0 0-.8 0zm0 0M14.984 5.012c.106 0 .207-.04.286-.117l.28-.282a.4.4 0 0 0-.566-.566l-.28.285a.396.396 0 0 0 0 .563c.077.078.179.117.28.117zm0 0M13.855 6.145c.102 0 .204-.04.282-.118l.285-.28a.4.4 0 0 0-.567-.567l-.285.28a.4.4 0 0 0 .285.685zm0 0M12.723 7.277c.101 0 .207-.039.285-.117l.281-.285a.396.396 0 0 0 0-.563.4.4 0 0 0-.566 0l-.282.282a.4.4 0 0 0 .282.683zm0 0M16.117 3.883c.102 0 .203-.04.281-.117l.286-.286a.396.396 0 0 0 0-.562.4.4 0 0 0-.567 0l-.281.281a.4.4 0 0 0 .281.684zm0 0M10.46 9.54c.102 0 .204-.04.282-.118l.285-.281a.4.4 0 0 0-.566-.567l-.285.281a.4.4 0 0 0 .285.684zm0 0M8.2 11.8c.1 0 .202-.038.28-.116l.282-.282a.4.4 0 0 0 0-.566.396.396 0 0 0-.563 0l-.285.285a.399.399 0 1 0 .285.68zm0 0M11.59 8.406c.105 0 .207-.039.285-.117l.281-.281a.4.4 0 0 0-.566-.567l-.281.286a.396.396 0 0 0 0 .562c.078.078.18.117.28.117zm0 0M9.328 10.672c.102 0 .207-.04.285-.117l.282-.285a.4.4 0 0 0-.567-.567l-.281.285a.4.4 0 0 0 .281.684zm0 0M15.656 7.895a.407.407 0 0 0 .547-.152l.192-.352a.395.395 0 0 0-.157-.543.396.396 0 0 0-.543.156l-.191.348a.397.397 0 0 0 .152.543zm0 0M16.473 5.605l-.196.348a.402.402 0 0 0 .352.594c.14 0 .277-.074.348-.203l.195-.352a.4.4 0 0 0-.7-.387zm0 0M17.21 5.098c.063.035.13.05.196.05.14 0 .278-.074.348-.203l.195-.351a.395.395 0 0 0-.156-.543.396.396 0 0 0-.543.156l-.195.348a.402.402 0 0 0 .156.543zm0 0M14.648 10.54l.192-.352a.4.4 0 0 0-.7-.387l-.19.347a.395.395 0 0 0 .155.543.37.37 0 0 0 .192.051c.14 0 .277-.074.351-.203zm0 0M15.426 9.14l.191-.35a.4.4 0 0 0-.7-.387l-.19.347a.397.397 0 0 0 .347.594c.14 0 .278-.074.352-.203zm0 0M13.91 11.043a.4.4 0 0 0-.547.156l-.113.207a.399.399 0 1 0 .7.387l.113-.207a.398.398 0 0 0-.153-.543zm0 0"/>
</svg>
